X: 10453
T: Donegal Traveller, The
R: reel
M: 4/4
K: Cmajor
c2 Gc EcGc|c2 ec dcAB|c2 Gc EcGE|FDGF ECEG|
c2 Gc EcGc|c2 ec dcAg|fedB cBAG|ABcd ecca||
g2 eg cgeg|cgef gdBd|(3gag eg cgeg|fagf ecce|
g2 eg cgeg|cgeg gdBd|agfe f2 de|fagf eccd||
ecgc acgc|ecgc AcGc|e~c3 acgc|fagf eccd|
ecgc acgc|ecBc AcGg|agfe ~f2 de|fagf ecdB||

